X:1
T:Baa Baa Black Sheep
C:Traditional
M:4/4
L:1/4
Q:1/4=120
K:G
G G d d | e d c B | A A G2 | G G d d | e d c B | A A G2 | G G d d | e d c B | A A G2 |]
w: Baa baa black sheep | have you a-ny wool | Yes sir yes sir | three bags full | One for my mas-ter | one for my dame | And one for the lit-tle boy | who lives down the lane |
